public/sheesh/icons8.svg

<svg width="42" height="42" viewBox="0 0 42 42" fill="none" xmlns="http://www.w3.org/2000/svg">
<rect width="42" height="42" rx="8" fill="#1D202F"/>
<path d="M21.499 11C15.989 11 11.499 15.49 11.499 21C11.499 26.51 15.989 31 21.499 31C27.009 31 31.499 26.51 31.499 21C31.499 15.49 27.009 11 21.499 11ZM25.849 24.57C25.709 24.81 25.459 24.94 25.199 24.94C25.069 24.94 24.939 24.91 24.819 24.83L21.719 22.98C20.949 22.52 20.379 21.51 20.379 20.62V16.52C20.379 16.11 20.719 15.77 21.129 15.77C21.539 15.77 21.879 16.11 21.879 16.52V20.62C21.879 20.98 22.179 21.51 22.489 21.69L25.589 23.54C25.949 23.75 26.069 24.21 25.849 24.57Z" fill="#434665"/>
</svg>

<svg fill="none" height="42" viewBox="0 0 42 42" width="42" xmlns="http://www.w3.org/2000/svg"><rect fill="#1d202f" height="42" rx="8" width="42"/><path d="m21.499 11c-5.51 0-10 4.49-10 10s4.49 10 10 10 10-4.49 10-10-4.49-10-10-10zm4.35 13.57c-.14.24-.39.37-.65.37-.13 0-.26-.03-.38-.11l-3.1-1.85c-.77-.46-1.34-1.47-1.34-2.36v-4.1c0-.41.34-.75.75-.75s.75.34.75.75v4.1c0 .36.3.89.61 1.07l3.1 1.85c.36.21.48.67.26 1.03z" fill="#434665"/></svg>
